X:159
T:Trip to Athlone
Z: id:dc-jig-136
M:6/8
L:1/8
K:D Major
A|ABA D3|dcA AGE|ABA ABc|dAB cde|!
ABA D3|dcA AGE|G3 Ade|fdc d2:|!
e|fed edc|Adc d2e|fed edc|ABc def|!
g3 age|dcA AGE|G3 Ade|fdc d2:|!

